svgs/regular/chart-scatter.svg

<svg xmlns="http://www.w3.org/2000/svg" viewBox="0 0 512 512"><!-- Font Awesome Pro 6.0.0-alpha2 by @fontawesome - https://fontawesome.com License - https://fontawesome.com/license (Commercial License) --><path d="M288 288C305.674 288 320 273.672 320 256C320 238.326 305.674 224 288 224S256 238.326 256 256C256 273.672 270.326 288 288 288ZM384 352C401.674 352 416 337.672 416 320C416 302.326 401.674 288 384 288S352 302.326 352 320C352 337.672 366.326 352 384 352ZM416 160C433.674 160 448 145.672 448 128C448 110.326 433.674 96 416 96S384 110.326 384 128C384 145.672 398.326 160 416 160ZM488 432H48V56C48 42.744 37.254 32 24 32S0 42.744 0 56V448C0 465.6 14.4 480 32 480H488C501.254 480 512 469.254 512 456C512 442.744 501.254 432 488 432ZM192 192C209.674 192 224 177.672 224 160C224 142.326 209.674 128 192 128S160 142.326 160 160C160 177.672 174.326 192 192 192ZM160 352C177.674 352 192 337.672 192 320C192 302.326 177.674 288 160 288S128 302.326 128 320C128 337.672 142.326 352 160 352Z"/></svg>

<svg xmlns="http://www.w3.org/2000/svg" viewBox="0 0 512 512"><!--! Font Awesome Pro 6.0.0-alpha3 by @fontawesome - https://fontawesome.com License - https://fontawesome.com/license (Commercial License) --><path d="M288 288c17.67 0 32-14.33 32-32c0-17.67-14.33-32-32-32s-32 14.33-32 32C256 273.7 270.3 288 288 288zM384 352c17.67 0 32-14.33 32-32c0-17.67-14.33-32-32-32s-32 14.33-32 32C352 337.7 366.3 352 384 352zM416 160c17.67 0 32-14.33 32-32c0-17.67-14.33-32-32-32s-32 14.33-32 32C384 145.7 398.3 160 416 160zM488 432H48V56C48 42.74 37.25 32 24 32S0 42.74 0 56V448c0 17.6 14.4 32 32 32h456c13.25 0 24-10.75 24-24C512 442.7 501.3 432 488 432zM192 192c17.67 0 32-14.33 32-32c0-17.67-14.33-32-32-32S160 142.3 160 160C160 177.7 174.3 192 192 192zM160 352c17.67 0 32-14.33 32-32c0-17.67-14.33-32-32-32s-32 14.33-32 32C128 337.7 142.3 352 160 352z"/></svg>
